assets/canonical-svgs/gender-nonbinary-fill-svgrepo-com.svg

<?xml version="1.0" encoding="utf-8"?><!-- Uploaded to: SVG Repo, www.svgrepo.com, Generator: SVG Repo Mixer Tools -->
<svg fill="#000000" width="800px" height="800px" viewBox="0 0 256 256" id="Flat" xmlns="http://www.w3.org/2000/svg">
  <path d="M136,88.42383V59.01465l23.25049,15.625a7.99987,7.99987,0,1,0,8.9248-13.2793L142.34253,44l25.83276-17.36035a7.99987,7.99987,0,1,0-8.9248-13.2793L128,34.36133l-31.25049-21.001a7.99987,7.99987,0,1,0-8.9248,13.2793L113.65747,44,87.82471,61.36035a7.99987,7.99987,0,1,0,8.9248,13.2793L120,59.01465V88.42383a76,76,0,1,0,16,0ZM128,224a60,60,0,1,1,60-60A60.06812,60.06812,0,0,1,128,224Z"/>
</svg>

<?xml version="1.0" encoding="UTF-8"?>
<!-- Uploaded to: SVG Repo, www.svgrepo.com, Generator: SVG Repo Mixer Tools -->
<svg id="a" width="800px" height="800px" fill="#000000" viewBox="0 0 256 256" xmlns="http://www.w3.org/2000/svg">
 <path d="m136 88.424v-29.409l23.25 15.625a7.9999 7.9999 0 1 0 8.9248-13.279l-25.833-17.36 25.833-17.36a7.9999 7.9999 0 1 0-8.9248-13.279l-31.25 21.001-31.25-21.001a7.9999 7.9999 0 1 0-8.9248 13.279l25.833 17.36-25.833 17.36a7.9999 7.9999 0 1 0 8.9248 13.279l23.25-15.625v29.409a76 76 0 1 0 16 0zm-8 135.58a60 60 0 1 1 60-60 60.068 60.068 0 0 1-60 60z"/>
</svg>
